!!!!SEGMENT: pl-kk--kk-i-3--052-002_anonim--missa-benedictus.krn
!!!cenid: 15xx:709
!!!COM: Anonim
!!!COM-rismid: pe30004985
!!!CDT:
!!!CNT:
!!!OPR: [Missa]
!!!OTL: Benedictus
!!!OMV: 002
!!!PDT:
!!!AGN:
!!!SMS-siglum: PL-Kk
!!!SMS-shelfmark: Kk.I.3
!!!SMS-shelfwork: 052-002 M
!!!SMS-variant:
!!!SMS-altvar:
!!!NIFC-rismid: 1001145550
!!!URL-scan: http://repozytorium.nifc.pl/skany/pl-kk-nut--i-3
!!!ONB-nifc: UWAGA: Discantus (s. 142v-143r, skan 0145), Tenor (s. 106r, skan 0278), Bassus (s. 137r-v, skan 0440-0441). Części: 1. Sanctus, 2. Benedictus, 3. Agnus Dei
!!!key: d:dor
**kern	**text	**kern	**text	**kern	**text
*part3	*part3	*part2	*part2	*part1	*part1
*staff3	*staff3	*staff2	*staff2	*staff1	*staff1
*I"[Bassus]	*	*I"[Tenor]	*	*I"[Discantus]	*
*I'[B]	*	*I'[T]	*	*I'[A]	*
*Ibass	*	*Itenor	*	*Ialto	*
*ICvox	*	*ICvox	*	*ICvox	*
*clefF4	*	*clefC4	*	*clefC3	*
*k[]	*	*k[]	*	*k[]	*
*d:	*	*d:	*	*d:	*
*M2/1	*	*M2/1	*	*M2/1	*
*met(C|)	*	*met(C|)	*	*met(C|)	*
=1-	=1-	=1-	=1-	=1-	=1-
*2\right	*	*2\right	*	*2\right	*
!!LO:TX:t=P:problem:all\middle or right:global
!!LO:TX:t=P:problem:all/ middle or right:global
!!LO:TX:t=P:problem:brak metrum
2.D/	Be-	1d	Be-	1f	Be-
4E/	.	.	.	.	.
2F\	.	1d	-ne-	2f\	-ne-
2G\	-ne-	.	.	2d/	-di-
=2-	=2-	=2-	=2-	=2-	=2-
2E/	-di-	1e	.	1g	-ctus
2C/	-ct(us)	.	.	.	.
2.D/	qui	0d	.	2.f\	.
4E/	.	.	.	4e/	.
=3-	=3-	=3-	=3-	=3-	=3-
2F\	.	.	.	4d/	.
.	.	.	.	4c/	.
2G\	.	.	.	2B/	qui
2A\	.	1A	.	2c/	.
2F\	.	.	.	2A/	ve-
*custos:E	*	*	*	*	*
=4-	=4-	=4-	=4-	=4-	=4-
!LO:LB:g=original	!	!	!	!	!
1E	.	1c	.	2G/	-nit
.	.	.	.	2g\	in
1D	ve-	1d	.	2f\	no-
.	.	.	.	1d\	-mi-
=5-	=5-	=5-	=5-	=5-	=5-
1AA	-nit	1e	-di-	.	.
.	.	.	.	2c/	-ne
*	*	*	*	*custos:d	*
!	!	!	!	!LO:LB:g=orignal	!
2r	.	0d	-ctus	1d	.
2.D/	.	.	.	.	.
=6-	=6-	=6-	=6-	=6-	=6-
.	.	.	.	2r	.
4C/	.	.	.	.	.
2BB-X/	.	.	.	1f	Do-
2AA/	.	1c	qui	.	.
1A\	.	.	.	2e\	-mi-
=7-	=7-	=7-	=7-	=7-	=7-
.	.	1B	Ve-	1d	-ni
2G\	.	.	.	.	.
1A	.	0A	-nit	2r	.
.	.	.	.	2.a\	.
=8-	=8-	=8-	=8-	=8-	=8-
2r	.	.	.	.	.
.	.	.	.	4g\	.
2.D/	in	.	.	1f	.
*	*	*custos:d	*	*	*
!	!	!LO:LB:g=original	!	!	!
.	.	1d	in	.	.
4E/	.	.	.	.	.
4F\	.	.	.	4e\	.
4G\	.	.	.	4d/	.
=9-	=9-	=9-	=9-	=9-	=9-
1A	.	1c	no-	1e	.
*custos:D	*	*	*	*	*
!LO:LB:g=original	!	!	!	!	!
2.D/	no-	1d	-mi-	2f\	.
.	.	.	.	2.d/	.
4E/	.	.	.	.	.
=10-	=10-	=10-	=10-	=10-	=10-
!	!	!LO:TX:t=P:problem:nieczytelne źródło - wyrwana kartka	!	!	!
2F\	.	0A	-ne	.	.
.	.	.	.	4e\	.
2D/	.	.	.	2f\	.
*	*	*	*	*custos:g	*
!	!	!	!	!LO:LB:g=original	!
2.E/	-mi-	.	.	2.g\	.
4D/	.	.	.	4f\	.
=11-	=11-	=11-	=11-	=11-	=11-
2C/	.	0G	Do-	2e\	.
2BBny/	.	.	.	2d\	.
*lig	*	*	*	*	*
1AA	-ne	.	.	2.c/	.
.	.	.	.	4B/	.
=12-	=12-	=12-	=12-	=12-	=12-
1D	.	1A	.	1A	.
*Xlig	*	*	*	*col	*
1GG	do-	1F	.	0d	.
=13-	=13-	=13-	=13-	=13-	=13-
4GG/	-mi-	1G	.	.	.
4AA/	.	.	.	.	.
4BB/	.	.	.	.	.
4C/	.	.	.	.	.
!LO:N:vis=0	!	!	!	!LO:N:vis=0	!
0.D;	-ni	1A	-mi-	0.d;<	.
*	*	*	*	*Xcol	*
=14-	=14-	=14-	=14-	=14-	=14-
.	.	[0A;l	-ni	.	.
*custos:D	*	*	*	*	*
=15-	=15-	=15-	=15-	=15-	=15-
*lig	*	*	*	*	*
!LO:LB:g=original	!	!	!	!	!
1D	O-	0A_	.	2.d/	O-
.	.	.	.	4c/	-ſan-
1GG	.	.	.	4B/	.
.	.	.	.	4A/	.
*	*	*	*	*custos:B	*
!	!	!	!	!LO:LB:g=original	!
.	.	.	.	2B/	.
*Xlig	*	*	*	*	*
=16-	=16-	=16-	=16-	=16-	=16-
1FF	-ſan-	0A_	.	2A/	-na
.	.	.	.	1c	.
1GG	-na	.	.	.	.
.	.	.	.	2B/	.
=17-	=17-	=17-	=17-	=17-	=17-
2.AA/	in	0A_	.	2.c/	in
4BB/	.	.	.	4d/	ex-
2C/	.	.	.	2e	-cel-
*lig	*	*	*	*	*
1AA/	ex-	.	.	1c\	-ſis
=18-	=18-	=18-	=18-	=18-	=18-
.	.	0A_	.	.	.
1BB	.	.	.	1d	.
*Xlig	*	*	*	*	*
*lig	*	*	*	*	*
1C/	-cel-	.	.	1e\	.
=19-	=19-	=19-	=19-	=19-	=19-
.	.	0A_	.	.	.
1D	.	.	.	1f	.
*Xlig	*	*	*	*	*
1C/	-ſis	.	.	1e\	.
=20-	=20-	=20-	=20-	=20-	=20-
.	.	0A_	.	.	.
*	*ij	*	*	*	*
2F\	O-	.	.	1a	.
2D/	.	.	.	.	.
2E/	.	.	.	2g\	.
*	*	*	*	*custos:a	*
=21-	=21-	=21-	=21-	=21-	=21-
!	!	!	!	!LO:PB:g=original	!
2AA/	.	0A_	.	2a\	.
1D	-ſan-	.	.	4g\	.
.	.	.	.	4f\	.
.	.	.	.	1e	.
*custos:C	*	*	*	*	*
!LO:LB:g=original	!	!	!	!	!
2C/	.	.	.	.	.
=22-	=22-	=22-	=22-	=22-	=22-
1D	-na	0A_	.	2r	.
.	.	.	.	2.f\	.
2r	.	.	.	.	.
.	.	.	.	4e\	.
2GG/	in	.	.	2d/	.
=23-	=23-	=23-	=23-	=23-	=23-
1C	.	0A_	.	1e	.
1D	.	.	.	1f	.
=24-	=24-	=24-	=24-	=24-	=24-
2E\	ex-	0A_	.	2g\	.
2.C/	.	.	.	2.e/	.
4D/	.	.	.	4f\	.
2E/	.	.	.	2g\	.
=25-	=25-	=25-	=25-	=25-	=25-
2.D/	.	0A_	.	2.f\	.
4C/	.	.	.	4e\	.
2BB-X/	.	.	.	2d/	.
*	*	*	*	*custos:c	*
!	!	!	!	!LO:LB:g=original	!
1AA/	-cel-	.	.	1c\	.
=26-	=26-	=26-	=26-	=26-	=26-
.	.	0A_	.	.	.
2GG/	.	.	.	1d	.
*custos:AA	*	*	*	*	*
!LO:PB:g=original	!	!	!	!	!
1AA	.	.	.	.	.
.	.	.	.	2c/	.
=27-	=27-	=27-	=27-	=27-	=27-
2BBny/	.	0A_	.	2d/	.
2GG/	.	.	.	4c/	.
.	.	.	.	4B/	.
1D	-ſis	.	.	1A	.
*	*Xij	*	*	*	*
=28-	=28-	=28-	=28-	=28-	=28-
2r	.	0A_	.	2G/	.
2GG/	in	.	.	1g	.
1D	ex-	.	.	.	.
.	.	.	.	2f\	.
=29-	=29-	=29-	=29-	=29-	=29-
0GG;	-cel-	0A_	.	2g;\	.
.	.	.	.	4f\	.
.	.	.	.	4e\	.
.	.	.	.	2.d/	.
.	.	.	.	4e\	.
=30-	=30-	=30-	=30-	=30-	=30-
!LO:N:vis=00	!	!	!	!	!
0D;<	-ſis	0A]	.	0f 0d;;	.
*	*	*custos:D	*	*	*
==	==	==	==	==	==
*-	*-	*-	*-	*-	*-
!!!system-decoration: [(s1,s2,s3)]
!!!RDF**kern: > = above
!!!RDF**kern: < = below
!!!RDF**kern: l = terminal long
!!!AIN: 1 alto 1 bass 1 tenor
!!!ENC: Katarzyna Serwa
!!!END: 2022-01-25
!!!ENC: Arkadiusz Malec
!!!END: 2020-01-20
